src/assets/svg/icons/fa/nuevos/classic/light/grip classic light.svg

<svg xmlns="http://www.w3.org/2000/svg" viewBox="0 0 448 512"><!--! Font Awesome Pro 6.4.0 by @fontawesome - https://fontawesome.com License - https://fontawesome.com/license (Commercial License) Copyright 2023 Fonticons, Inc. --><path d="M408 384c4.4 0 8-3.6 8-8l0-48c0-4.4-3.6-8-8-8l-48 0c-4.4 0-8 3.6-8 8l0 48c0 4.4 3.6 8 8 8l48 0zm40-8c0 22.1-17.9 40-40 40l-48 0c-22.1 0-40-17.9-40-40l0-48c0-22.1 17.9-40 40-40l48 0c22.1 0 40 17.9 40 40l0 48zM408 192c4.4 0 8-3.6 8-8l0-48c0-4.4-3.6-8-8-8l-48 0c-4.4 0-8 3.6-8 8l0 48c0 4.4 3.6 8 8 8l48 0zm40-8c0 22.1-17.9 40-40 40l-48 0c-22.1 0-40-17.9-40-40l0-48c0-22.1 17.9-40 40-40l48 0c22.1 0 40 17.9 40 40l0 48zM200 384l48 0c4.4 0 8-3.6 8-8l0-48c0-4.4-3.6-8-8-8l-48 0c-4.4 0-8 3.6-8 8l0 48c0 4.4 3.6 8 8 8zm48 32l-48 0c-22.1 0-40-17.9-40-40l0-48c0-22.1 17.9-40 40-40l48 0c22.1 0 40 17.9 40 40l0 48c0 22.1-17.9 40-40 40zm0-224c4.4 0 8-3.6 8-8l0-48c0-4.4-3.6-8-8-8l-48 0c-4.4 0-8 3.6-8 8l0 48c0 4.4 3.6 8 8 8l48 0zm40-8c0 22.1-17.9 40-40 40l-48 0c-22.1 0-40-17.9-40-40l0-48c0-22.1 17.9-40 40-40l48 0c22.1 0 40 17.9 40 40l0 48zM40 384l48 0c4.4 0 8-3.6 8-8l0-48c0-4.4-3.6-8-8-8l-48 0c-4.4 0-8 3.6-8 8l0 48c0 4.4 3.6 8 8 8zm48 32l-48 0c-22.1 0-40-17.9-40-40l0-48c0-22.1 17.9-40 40-40l48 0c22.1 0 40 17.9 40 40l0 48c0 22.1-17.9 40-40 40zm0-224c4.4 0 8-3.6 8-8l0-48c0-4.4-3.6-8-8-8l-48 0c-4.4 0-8 3.6-8 8l0 48c0 4.4 3.6 8 8 8l48 0zm40-8c0 22.1-17.9 40-40 40l-48 0c-22.1 0-40-17.9-40-40l0-48c0-22.1 17.9-40 40-40l48 0c22.1 0 40 17.9 40 40l0 48z"/></svg>

<svg xmlns="http://www.w3.org/2000/svg" viewBox="0 0 448 512"><path d="M448 376C448 398.1 430.1 416 408 416H360C337.9 416 320 398.1 320 376V328C320 305.9 337.9 288 360 288H408C430.1 288 448 305.9 448 328V376zM416 376V328C416 323.6 412.4 320 408 320H360C355.6 320 352 323.6 352 328V376C352 380.4 355.6 384 360 384H408C412.4 384 416 380.4 416 376zM448 184C448 206.1 430.1 224 408 224H360C337.9 224 320 206.1 320 184V136C320 113.9 337.9 96 360 96H408C430.1 96 448 113.9 448 136V184zM416 184V136C416 131.6 412.4 128 408 128H360C355.6 128 352 131.6 352 136V184C352 188.4 355.6 192 360 192H408C412.4 192 416 188.4 416 184zM200 416C177.9 416 160 398.1 160 376V328C160 305.9 177.9 288 200 288H248C270.1 288 288 305.9 288 328V376C288 398.1 270.1 416 248 416H200zM200 384H248C252.4 384 256 380.4 256 376V328C256 323.6 252.4 320 248 320H200C195.6 320 192 323.6 192 328V376C192 380.4 195.6 384 200 384zM288 184C288 206.1 270.1 224 248 224H200C177.9 224 160 206.1 160 184V136C160 113.9 177.9 96 200 96H248C270.1 96 288 113.9 288 136V184zM256 184V136C256 131.6 252.4 128 248 128H200C195.6 128 192 131.6 192 136V184C192 188.4 195.6 192 200 192H248C252.4 192 256 188.4 256 184zM40 416C17.91 416 0 398.1 0 376V328C0 305.9 17.91 288 40 288H88C110.1 288 128 305.9 128 328V376C128 398.1 110.1 416 88 416H40zM40 384H88C92.42 384 96 380.4 96 376V328C96 323.6 92.42 320 88 320H40C35.58 320 32 323.6 32 328V376C32 380.4 35.58 384 40 384zM128 184C128 206.1 110.1 224 88 224H40C17.91 224 0 206.1 0 184V136C0 113.9 17.91 96 40 96H88C110.1 96 128 113.9 128 136V184zM96 184V136C96 131.6 92.42 128 88 128H40C35.58 128 32 131.6 32 136V184C32 188.4 35.58 192 40 192H88C92.42 192 96 188.4 96 184z"/></svg>
